X: 010675
T: Ah Surely!
S: "Where's the Crack v/1" (DJ Taylor)
Z: B.Black
L: 1/8
M: 4/4
R: reel
K: G
A3 c BG G2 | BGBd g2 fg | eA A2 BGBd | (3efg dB AcBG |
A^GAc B=G G2 | BGBd g2 ga | (3bag ag (3efg fa |\
gedc BG G2 :|
bg g2 agef | gfge dega | bgdg bgdg | eaag a2 ga |
bg g2 agef | gfge dega | (3bag af (3efg fa |\
gedc BG G2 :|
